X:195
T: Lass on the Strand
S: Allan's Irish Fiddler
Z: B.Black
N: simplified version - original in cut time
L: 1/8
M: C|
R: hornpipe
K: G
ga|bgdB GBdg|fecA E2 (3EFE|DdcA FDEF|GABc dfga|
bgdB GBdg|fecA E2 (3EFE|DdcA FDEF|G2 B2 G2 :|
AG|FGAB cDEF|GABc dcdB|AGAB cBcF|GABc dfga|
bgdB GBdg|fecA E2 (3EFE|DdcA FDEF|G2 B2 G2 :|
